src/pos-icons/music-clef-alto.svg

<?xml version="1.0" encoding="UTF-8"?><!DOCTYPE svg PUBLIC "-//W3C//DTD SVG 1.1//EN" "http://www.w3.org/Graphics/SVG/1.1/DTD/svg11.dtd"><svg xmlns="http://www.w3.org/2000/svg" xmlns:xlink="http://www.w3.org/1999/xlink" version="1.1" id="mdi-music-clef-alto" width="24" height="24" viewBox="0 0 24 24"><path d="M5 4H7V20H5M15.46 13H14.83L13.83 12L14.83 11H15.46A3.5 3.5 0 1 0 11.96 7.5H13.96A1.5 1.5 0 1 1 15.46 9H14L12 11H11V4H9V20H11V13H12L14 15H15.46A1.5 1.5 0 1 1 13.96 16.5H11.96A3.5 3.5 0 1 0 15.46 13Z" /></svg>

<svg height="24" viewBox="0 0 24 24" width="24" xmlns="http://www.w3.org/2000/svg"><path d="m5 4h2v16h-2m10.46-7h-.63l-1-1 1-1h.63a3.5 3.5 0 1 0 -3.5-3.5h2a1.5 1.5 0 1 1 1.5 1.5h-1.46l-2 2h-1v-7h-2v16h2v-7h1l2 2h1.46a1.5 1.5 0 1 1 -1.5 1.5h-2a3.5 3.5 0 1 0 3.5-3.5z"/></svg>
